X:1
T:Milonga del 900
T:Milonga del 900
T:Milonga Porteña
%%score { 1 | 2 }
L:1/8
Q:1/4=80
M:2/4
K:F
V:1 treble nm="Acordeón" snm="Acord."
V:2 bass 
V:1
!p!"^\n\n" z4 | z4 | z4 | z4 | .D/.A/.A/.F/ .B/.A/.A/.F/ | D/A/F/D/ C/G/B,/G/ | %6
 A,/G/G/E/ B/G/G/E/ | D/B/G/E/ ^C/A/G/A,/ || D z z2 | z4 || z A/d/ d/^c/e/c/ | d^c ed | d^c ec | %13
 [Fd][FA]- [FA][FA]/c/ | [DB][FA] [FA][D^G] | [^CA][E=G] [EB][DB] | [^CA][CA] [EG][EG] | [DF]2 z2 | %18
 z A/d/ d/^c/e/d/ | d^c ed | fe d^c | [Fd][FA]- [FA][Fd]/[Af]/ | [Fd][Ac] [DB][DA] | %23
 [^CA][EG] [Ge][EG] | [DF][DF] [^CE][CE] | D z2 [D^F] ||[K:D] (3[FA][FA][FA] [GB][FA] | %27
 [GA][GA]- [GA][GA]/[GA]/ | [GB]/[GA]/[Ge]- [Ge][EG] | [DF] z2 [Fd] | (3[FA][EG][DF] [EG][DF] | %31
 [DF][CE] [EG][EG] | [DF][DF] [CE][CE] | D2 z [DF] | (3[FA][FA][FA] [GB][FA] | %35
 [GA][GA]- [GA][GA]/[GA]/ | [GB]/[GA]/[Ge]- [Ge][EG] | [DF] z2 [Fd] | (3[FA][EG][DF] [EG][DF] | %39
 [DF][CE] [EG][EG] | [DF][DF] [CE][CE] | D/A/A/=F/ _B/A/A/F/ | D/A/=F/D/ =C/G/_B,/G/ | %43
 .A,/.G/.G/.E/ ._B/.G/.G/.E/ | .D/._B/.G/.D/ .C/.A/.G/.A,/ | D/A/A/=F/ _B/A/A/F/ | %46
 D/A/=F/D/ =C/G/_B,/G/ | .A,/.G/.G/.E/ ._B/.G/.G/.E/ | .D/._B/.G/.D/ .C/.A/.G/.A,/ | D z [FAe] z || %50
V:2
 .D,/.A,/A,/.F,/ .B,/.A,/.A,/.F,/ | .D,/.A,/.F,/.D,/ .C,/.G,/.B,,/.G,/ | %2
 .A,,/.G,/.G,/.E,/ .B,/.G,/.G,/.E,/ | .D,/.B,/.G,/.D,/ .^C,/.A,/.G,/.A,,/ | %4
 D,/A,/A,/F,/ B,/A,/A,/F,/ | D,/A,/F,/D,/ C,/G,/B,,/G,/ | C,/G,/G,/E,/ B,/G,/G,/E,/ | %7
 D,/B,/G,/D,/ ^C,/A,/G,/A,,/ ||"CRem" D, z/ F,/ A,A,, | D, z/ F,/ A,A,, || D, z/ F,/ A,A,, | %11
"CLa7" E, z/ G,/ A,A,, | E, z/ G,/ A,A,, |"CRem" D, z/ F,/ A,A,, | D, z/ F,/ A,A,, | %15
"CLa7" E, z/ G,/ A,A,, | E, z/ G,/ A,A,, |"CRem" D, z/ F,/ A,A,, | D, z/ F,/ A,A,, | %19
"CLa7" E, z/ G,/ A,A,, | E, z/ G,/ A,A,, |"CRem" D, z/ F,/ A,A,, | D, z/ F,/ A,A,, | %23
"CLa7" E, z/ G,/ A,A,, | E, z/ G,/ A,A,, |"CRe" D, z/ ^F,/ A,A,, ||[K:D] D, z/ F,/ A,A,, | %27
"CLa7" E, z/ G,/ A,A,, | E, z/ G,/ A,A,, |"CRe" D, z/ F,/ A,A,, | D, z/ F,/ A,A,, | %31
"CLa7" E, z/ G,/ A,A,, | E, z/ G,/ A,A,, |"CRe" D, z/ F,/ A,A,, | D, z/ F,/ A,A,, | %35
"CLa7" E, z/ G,/ A,A,, | E, z/ G,/ A,A,, |"CRe" D, z/ F,/ A,A,, | D, z/ F,/ A,A,, | %39
"CLa7" E, z/ G,/ A,A,, | E, z/ G,/ A,A,, | D,/A,/A,/=F,/ _B,/A,/A,/F,/ | %42
 D,/A,/=F,/D,/ =C,/G,/_B,,/G,/ | .A,,/.G,/.G,/.E,/ ._B,/.G,/.G,/.E,/ | %44
 .D,/._B,/.G,/.D,/ .^C,/.A,/.G,/.A,,/ | D,/A,/A,/=F,/ _B,/A,/A,/F,/ | %46
 D,/A,/=F,/D,/ =C,/G,/_B,,/G,/ | .A,,/.G,/.G,/.E,/ ._B,/.G,/.G,/.E,/ | %48
 .D,/._B,/.G,/.D,/ .^C,/.A,/.G,/.A,,/ | D, z [A,,D,F,] z || %50

